X:1
T:Title
%%score { 1 | 2 }
L:1/8
Q:1/4=100
M:4/4
K:Bb
V:1 treble nm="Grand Piano"
V:2 bass 
V:1
 [DF]2 [B,D]>[CE] [DF]2 [Fd]2 | cBAG [DF]4 | F2 E>D E4 | [EG]2 [DF]>[_D=E] [=DF]4 | %4
w: J.~Lincoln~Hall * * * *||||
 [DF]2 [B,D]>[CE] [DF]2 [Fd]2 | cBAG [DF]2 [FB][Gc] | d2 d2 d2 c2 | [DB]6 z2 | %8
w: ||||
 [Fd]2 [Ec]>[DB] [DA]2 [DG]2 | G3 F F2 F2 | c3 =B c2 d2 | [DF]6 z2 | f2 e>d [Fc]2 [FB]2 | %13
w: |||||
[M:9/8] [FA]3 [EG] [EG]2- [EG][GB][Gc] |[M:4/4] d2 d2 d2 c2 | [DB]6 z2 |] %16
w: |||
V:2
 [B,,B,]2 [B,,F,]>[B,,F,] [B,,B,]2 [B,,B,]2 | [E,G,E][E,G,E][E,A,E][E,B,E] [B,,B,]4 | %2
 [F,B,D]2 [F,A,C]>[F,_A,B,] [F,=A,C]4 | [B,,B,]2 [B,,B,]>[B,,B,] [B,,B,]4 | %4
 [B,,B,]2 [B,,F,]>[B,,F,] [B,,B,]2 [B,,B,]2 | [E,G,E][E,G,E][E,A,E][E,B,E] [B,,B,]2 [D,B,][E,B,] | %6
 [F,B,F]2 [F,B,F]2 [F,A,F]2 [F,A,E]2 | [B,,B,]6 z2 | [B,,B,]2 [B,,B,]>[B,,B,] [B,,B,]2 [B,,B,]2 | %9
 [F,A,E]3 [F,A,E] [F,A,E]2 [F,A,E]2 | [F,A,E]3 [F,_A,D] [F,=A,E]2 [F,A,F]2 | [B,,B,]6 z2 | %12
 [B,DF]2 [B,DF]>[B,DF][K:bass] [D,B,]2 [D,B,]2 | %13
[M:9/8] [E,B,]3 [E,B,] [E,B,]2- [E,B,][E,B,][E,B,] |[M:4/4] [F,B,F]2 [F,B,F]2 [F,A,F]2 [F,A,E]2 | %15
 [B,,F,B,]6 z2 |] %16

